desktop/renderer-app/src/assets/image/microphone-disabled.svg

<?xml version="1.0" encoding="UTF-8"?>
<svg width="22px" height="22px" viewBox="0 0 22 22" version="1.1" xmlns="http://www.w3.org/2000/svg" xmlns:xlink="http://www.w3.org/1999/xlink">
    <title>soundHide</title>
    <g id="2.1" stroke="none" stroke-width="1" fill="none" fill-rule="evenodd">
        <g id="组件规范" transform="translate(-296.000000, -1372.000000)" fill="#FFFFFF" fill-rule="nonzero">
            <g id="编组-4" transform="translate(32.000000, 1188.000000)">
                <g id="位图备份" transform="translate(8.000000, 0.000000)">
                    <g id="soundHide" transform="translate(256.000000, 184.000000)">
                        <path d="M15,10.5 C15.2761424,10.5 15.5,10.7238576 15.5,11 C15.5,13.3160341 13.7503421,15.2234136 11.5007074,15.4724574 L11.5,16.5 L13,16.5 C13.2761424,16.5 13.5,16.7238576 13.5,17 C13.5,17.2454599 13.3231248,17.4496084 13.0898756,17.4919443 L13,17.5 L9,17.5 C8.72385763,17.5 8.5,17.2761424 8.5,17 C8.5,16.7545401 8.67687516,16.5503916 8.91012437,16.5080557 L9,16.5 L10.5,16.5 L10.500297,15.4725684 C9.68384789,15.3823693 8.93321981,15.0737473 8.30813898,14.6064287 L9.02504018,13.8899605 C9.58716622,14.2748499 10.2672898,14.5 11,14.5 C12.9329966,14.5 14.5,12.9329966 14.5,11 C14.5,10.7238576 14.7238576,10.5 15,10.5 Z M11,4.5 C12.2501087,4.5 13.2859113,5.41755335 13.4706816,6.61593376 L15.2426407,4.84314575 C15.4379028,4.6478836 15.7544853,4.6478836 15.9497475,4.84314575 C16.1233138,5.0167121 16.142599,5.2861365 16.0076029,5.48100464 L15.9497475,5.55025253 L9.71922527,11.7811934 L9.71922527,11.7811934 L8.99978306,12.4999549 L8.28753325,13.2120761 C8.2877982,13.2124006 8.28806321,13.2127251 8.28832827,13.2130495 L7.57857652,13.9231185 L7.57669914,13.922 L6.05025253,15.4497475 C5.85499039,15.6450096 5.5384079,15.6450096 5.34314575,15.4497475 C5.1695794,15.2761811 5.15029425,15.0067567 5.2852903,14.8118886 L5.34314575,14.7426407 L7.0076422,13.0783176 C6.6833443,12.4566279 6.5,11.7497251 6.5,11 C6.5,10.7238576 6.72385763,10.5 7,10.5 C7.27614237,10.5 7.5,10.7238576 7.5,11 C7.5,11.4691511 7.59230669,11.9167428 7.75974924,12.3256043 L8.55591615,11.528258 C8.53044795,11.4098618 8.51336443,11.2883504 8.50531768,11.1643757 L8.5,11 L8.5,7 C8.5,5.61928813 9.61928813,4.5 11,4.5 Z M13.5,9.413 L13.5,11 C13.5,12.3807119 12.3807119,13.5 11,13.5 C10.5443651,13.5 10.1171992,13.3781095 9.74933146,13.1651576 L10.5002925,12.4147505 C10.6565993,12.4699604 10.8247916,12.5 11,12.5 C11.7796961,12.5 12.4204487,11.9051119 12.4931334,11.14446 L12.5,11 L12.5,10.413 L13.5,9.413 Z M11,5.5 C10.2203039,5.5 9.57955132,6.09488808 9.50686658,6.85553999 L9.5,7 L9.49969914,10.585 L12.4996991,7.585 L12.5,7 C12.5,6.17157288 11.8284271,5.5 11,5.5 Z" id="形状结合"></path>
                    </g>
                </g>
            </g>
        </g>
    </g>
</svg>

<svg width="22" height="22" xmlns="http://www.w3.org/2000/svg"><path d="M15 10.5a.5.5 0 0 1 .5.5 4.5 4.5 0 0 1-4 4.472V16.5H13a.5.5 0 0 1 .09.992L13 17.5H9a.5.5 0 0 1-.09-.992L9 16.5h1.5v-1.027a4.477 4.477 0 0 1-2.192-.867l.717-.716A3.5 3.5 0 0 0 14.5 11a.5.5 0 0 1 .5-.5Zm-4-6a2.5 2.5 0 0 1 2.47 2.116l1.773-1.773a.5.5 0 0 1 .765.638l-.058.07-6.23 6.23L9 12.5l-.712.712v.001l-.71.71-.001-.001L6.05 15.45a.5.5 0 0 1-.765-.638l.058-.07 1.665-1.664A4.48 4.48 0 0 1 6.5 11a.5.5 0 1 1 1 0c0 .47.092.917.26 1.326l.796-.798a2.5 2.5 0 0 1-.05-.364L8.5 11V7A2.5 2.5 0 0 1 11 4.5Zm2.5 4.913V11a2.5 2.5 0 0 1-3.75 2.165l.75-.75a1.5 1.5 0 0 0 1.993-1.27L12.5 11v-.587l1-1ZM11 5.5a1.5 1.5 0 0 0-1.493 1.356L9.5 7v3.585l3-3V7A1.5 1.5 0 0 0 11 5.5Z" fill="#FFF"/></svg>
